X:1
T:Land League
R:reel
C:PARNELL.
N:314
B:Ryan's Mammoth Collection
Z:Contributed by Ray Davies,  ray:davies99.freeserve.co.uk
M:2/4
L:1/16
K:G
uD2|\
v.G2vDuC B,G,B,D | ECFA GFGA | BGFG .c2.B2 | AGFG .A2.D2 |
v.G2vDuC B,G,B,D | ECFA GFGB | BGcB AGFA | G2G2G2:|
|:ud2|\
gfga bgdB | cBcd edcB | ABcd edcB | .A2{^c}d2{^c}d2{^c}d2 |
gfga bgdB | cBcd .e2.f2 | (gf).g.e (dB).G.c | (BG)(AF) G2:|
